icon-themes/breeze_svg/cmd/32/starshapes.concave-star6.svg

<svg viewBox="0 0 32 32" xmlns="http://www.w3.org/2000/svg"><path d="m10 4s1.1181 5.2639359 0 7.5c-1.1181 2.236068-6 4.5-6 4.5s4.8819 2.263932 6 4.5c1.1181 2.236073 0 7.5 0 7.5s3.49995-4.499997 6-4.5 6 4.5 6 4.5-1.1181-5.263936 0-7.5c1.1181-2.236068 6-4.5 6-4.5s-4.8819-2.263932-6-4.5c-1.1181-2.2360717 0-7.5 0-7.5s-3.49995 4.4999965-6 4.5-6-4.5-6-4.5z" fill="#4d4d4d"/></svg>

<svg xmlns="http://www.w3.org/2000/svg" viewBox="0 0 32 32">
 <path 
     style="fill:#4d4d4d" 
     d="M 10 4 C 10 4 11.1181 9.2639359 10 11.5 C 8.8819 13.736068 4 16 4 16 C 4 16 8.8819 18.263932 10 20.5 C 11.1181 22.736073 10 28 10 28 C 10 28 13.49995 23.500003 16 23.5 C 18.50005 23.499997 22 28 22 28 C 22 28 20.8819 22.736064 22 20.5 C 23.1181 18.263932 28 16 28 16 C 28 16 23.1181 13.736068 22 11.5 C 20.8819 9.2639283 22 4 22 4 C 22 4 18.50005 8.4999965 16 8.5 C 13.49995 8.5000035 10 4 10 4 z "
     />
</svg>
